image/icon-cut-white.svg

<svg width="24" height="24" viewBox="0 0 24 24" fill="none" xmlns="http://www.w3.org/2000/svg">
<path d="M19 21L12 14L9.65 16.35C9.78333 16.6 9.875 16.8667 9.925 17.15C9.975 17.4333 10 17.7167 10 18C10 19.1 9.60833 20.0417 8.825 20.825C8.04167 21.6083 7.1 22 6 22C4.9 22 3.95833 21.6083 3.175 20.825C2.39167 20.0417 2 19.1 2 18C2 16.9 2.39167 15.9583 3.175 15.175C3.95833 14.3917 4.9 14 6 14C6.28333 14 6.56667 14.025 6.85 14.075C7.13333 14.125 7.4 14.2167 7.65 14.35L10 12L7.65 9.65C7.4 9.78333 7.13333 9.875 6.85 9.925C6.56667 9.975 6.28333 10 6 10C4.9 10 3.95833 9.60833 3.175 8.825C2.39167 8.04167 2 7.1 2 6C2 4.9 2.39167 3.95833 3.175 3.175C3.95833 2.39167 4.9 2 6 2C7.1 2 8.04167 2.39167 8.825 3.175C9.60833 3.95833 10 4.9 10 6C10 6.28333 9.975 6.56667 9.925 6.85C9.875 7.13333 9.78333 7.4 9.65 7.65L22 20V21H19ZM15 11L13 9L19 3H22V4L15 11ZM6 8C6.55 8 7.02083 7.80417 7.4125 7.4125C7.80417 7.02083 8 6.55 8 6C8 5.45 7.80417 4.97917 7.4125 4.5875C7.02083 4.19583 6.55 4 6 4C5.45 4 4.97917 4.19583 4.5875 4.5875C4.19583 4.97917 4 5.45 4 6C4 6.55 4.19583 7.02083 4.5875 7.4125C4.97917 7.80417 5.45 8 6 8ZM12 12.5C12.1333 12.5 12.25 12.45 12.35 12.35C12.45 12.25 12.5 12.1333 12.5 12C12.5 11.8667 12.45 11.75 12.35 11.65C12.25 11.55 12.1333 11.5 12 11.5C11.8667 11.5 11.75 11.55 11.65 11.65C11.55 11.75 11.5 11.8667 11.5 12C11.5 12.1333 11.55 12.25 11.65 12.35C11.75 12.45 11.8667 12.5 12 12.5ZM6 20C6.55 20 7.02083 19.8042 7.4125 19.4125C7.80417 19.0208 8 18.55 8 18C8 17.45 7.80417 16.9792 7.4125 16.5875C7.02083 16.1958 6.55 16 6 16C5.45 16 4.97917 16.1958 4.5875 16.5875C4.19583 16.9792 4 17.45 4 18C4 18.55 4.19583 19.0208 4.5875 19.4125C4.97917 19.8042 5.45 20 6 20Z" fill="#fff"/>
</svg>

<svg xmlns="http://www.w3.org/2000/svg" width="24" height="24" fill="none"><path fill="#fff" d="m19 21-7-7-2.35 2.35q.2.375.275.8T10 18q0 1.65-1.175 2.825T6 22t-2.825-1.175T2 18t1.175-2.825T6 14q.425 0 .85.075t.8.275L10 12 7.65 9.65q-.375.2-.8.275T6 10q-1.65 0-2.825-1.175T2 6t1.175-2.825T6 2t2.825 1.175T10 6q0 .425-.075.85t-.275.8L22 20v1zm-4-10-2-2 6-6h3v1zM6 8q.824 0 1.412-.588Q8 6.826 8 6q0-.824-.588-1.412A1.93 1.93 0 0 0 6 4q-.824 0-1.412.588A1.93 1.93 0 0 0 4 6q0 .824.588 1.412Q5.175 8 6 8m6 4.5a.48.48 0 0 0 .35-.15.48.48 0 0 0 0-.7.48.48 0 0 0-.7 0 .48.48 0 0 0 0 .7q.15.15.35.15M6 20q.824 0 1.412-.587Q8 18.825 8 18q0-.824-.588-1.413A1.93 1.93 0 0 0 6 16q-.824 0-1.412.587A1.93 1.93 0 0 0 4 18q0 .824.588 1.413Q5.175 20 6 20"/></svg>
